Dominus_Dark_Funeral/22/places/folder-favorites.svg

<svg xmlns="http://www.w3.org/2000/svg" width="24" height="24" viewBox="0 0 12.7 12.7"><defs><linearGradient id="a"><stop offset="0" stop-color="#216778"/><stop offset="1" stop-color="#5fbcd3"/></linearGradient></defs><path d="M6.332 11.856a205.286 205.286 0 0 1-1.954-6.08c.019-.038.369-.332.406-.314a277.315 277.315 0 0 1 1.474 4.662l.405-1.106.369-1.124h.295a1.29 1.29 0 0 1 .294 0zm-.498-.774l-.332-.055a5.16 5.16 0 0 1-3.924-3.225l.294-.018h.277l.129.24a4.588 4.588 0 0 0 3.372 2.468c.074.019.074.019.147.222a3.685 3.685 0 0 1 .074.294c0 .037 0 .056-.037.074zm.995 0l-.037-.037.074-.276.074-.258h.129a4.607 4.607 0 0 0 3.28-2.285l.147-.276h.59a5.767 5.767 0 0 1-1.659 2.155 5.104 5.104 0 0 1-2.598.959zm4.551-3.28l-2.874-.055-2.617-.037h-.22l-.074-.24a1.013 1.013 0 0 1-.056-.257l2.525.018 2.506.018-1.032-.773a7.297 7.297 0 0 1-1.032-.811 7.518 7.518 0 0 0 .129-.48l3.5 2.599H11.4zm-7.075-.129A173.04 173.04 0 0 1 .565 7.6l2.597-1.88L5.78 3.877l.24.166c.22.185.239.185.184.221L4.194 5.738l-1.971 1.42h.479l1.197.036h.737l.074.203.074.258zM7.86 7.12l-.369-.018c-.11 0-.184-.018-.184-.037L8.1 4.688l.774-2.34L6.94 3.73l-.258-.147a1.603 1.603 0 0 1-.24-.185L9.888.966 8.91 3.97l-.995 3.058c0 .056 0 .074-.055.074zm3.5-.073a1.106 1.106 0 0 1-.239-.148c-.184-.129-.24-.184-.24-.22l.038-.37c.11-1.234-.35-2.542-1.198-3.445l-.221-.221.074-.295a1.013 1.013 0 0 1 .11-.276 5.104 5.104 0 0 1 1.695 4.975zM1.339 6.862l-.055-.257a5.16 5.16 0 0 1 1.713-4.478l.093.295.073.276-.184.184c-.369.424-.774 1.106-.958 1.659a4.901 4.901 0 0 0-.221 2.027c0 .037-.443.294-.46.294zm6.45-1.695L5.76 3.693C4.415 2.698 3.77 2.22 3.77 2.274l.737 2.304c0 .018-.368.294-.423.294 0 0-1.29-3.98-1.272-3.998l2.58 1.88L7.916 4.65l-.037.185-.073.24a.141.141 0 0 1-.037.091zm.552-3.316l-.092-.056a4.79 4.79 0 0 0-2.47-.368c-.405.055-.92.184-1.234.35l-.166.074-.22-.148c-.296-.221-.296-.203-.056-.332a5.178 5.178 0 0 1 3.87-.276c.405.147.92.369.866.424l-.258.166z" fill="#e6e6e6"/></svg>

<?xml version="1.0" encoding="UTF-8" standalone="no"?>
<svg
   xmlns:dc="http://purl.org/dc/elements/1.1/"
   xmlns:cc="http://creativecommons.org/ns#"
   xmlns:rdf="http://www.w3.org/1999/02/22-rdf-syntax-ns#"
   xmlns:svg="http://www.w3.org/2000/svg"
   xmlns="http://www.w3.org/2000/svg"
   xmlns:sodipodi="http://sodipodi.sourceforge.net/DTD/sodipodi-0.dtd"
   xmlns:inkscape="http://www.inkscape.org/namespaces/inkscape"
   width="24"
   height="24"
   viewBox="0 0 12.7 12.7"
   version="1.1"
   id="svg11"
   sodipodi:docname="folder-favorites.svg"
   inkscape:version="0.92.4 (5da689c313, 2019-01-14)">
  <metadata
     id="metadata15">
    <rdf:RDF>
      <cc:Work
         rdf:about="">
        <dc:format>image/svg+xml</dc:format>
        <dc:type
           rdf:resource="http://purl.org/dc/dcmitype/StillImage" />
        <dc:title></dc:title>
      </cc:Work>
    </rdf:RDF>
  </metadata>
  <sodipodi:namedview
     pagecolor="#ffffff"
     bordercolor="#666666"
     borderopacity="1"
     objecttolerance="10"
     gridtolerance="10"
     guidetolerance="10"
     inkscape:pageopacity="0"
     inkscape:pageshadow="2"
     inkscape:window-width="1112"
     inkscape:window-height="480"
     id="namedview13"
     showgrid="false"
     inkscape:zoom="9.8333333"
     inkscape:cx="1.0677966"
     inkscape:cy="12"
     inkscape:window-x="0"
     inkscape:window-y="25"
     inkscape:window-maximized="0"
     inkscape:current-layer="svg11" />
  <defs
     id="defs7">
    <linearGradient
       id="a">
      <stop
         offset="0"
         stop-color="#216778"
         id="stop2" />
      <stop
         offset="1"
         stop-color="#5fbcd3"
         id="stop4" />
    </linearGradient>
  </defs>
  <path
     d="M 6.332,11.856 A 205.286,205.286 0 0 1 4.378,5.776 C 4.397,5.738 4.747,5.444 4.784,5.462 a 277.315,277.315 0 0 1 1.474,4.662 L 6.663,9.018 7.032,7.894 h 0.295 a 1.29,1.29 0 0 1 0.294,0 z M 5.834,11.082 5.502,11.027 A 5.16,5.16 0 0 1 1.578,7.802 L 1.872,7.784 h 0.277 l 0.129,0.24 a 4.588,4.588 0 0 0 3.372,2.468 c 0.074,0.019 0.074,0.019 0.147,0.222 a 3.685,3.685 0 0 1 0.074,0.294 c 0,0.037 0,0.056 -0.037,0.074 z m 0.995,0 -0.037,-0.037 0.074,-0.276 0.074,-0.258 h 0.129 a 4.607,4.607 0 0 0 3.28,-2.285 L 10.496,7.95 h 0.59 A 5.767,5.767 0 0 1 9.427,10.105 5.104,5.104 0 0 1 6.829,11.064 Z M 11.38,7.802 8.506,7.747 5.889,7.71 H 5.669 L 5.595,7.47 A 1.013,1.013 0 0 1 5.539,7.213 L 8.064,7.231 10.57,7.249 9.538,6.476 A 7.297,7.297 0 0 1 8.506,5.665 7.518,7.518 0 0 0 8.635,5.185 l 3.5,2.599 H 11.4 Z M 4.305,7.673 A 173.04,173.04 0 0 1 0.565,7.6 L 3.162,5.72 5.78,3.877 6.02,4.043 C 6.24,4.228 6.259,4.228 6.204,4.264 L 4.194,5.738 2.223,7.158 H 2.702 L 3.899,7.194 H 4.636 L 4.71,7.397 4.784,7.655 Z M 7.86,7.12 7.491,7.102 C 7.381,7.102 7.307,7.084 7.307,7.065 L 8.1,4.688 8.874,2.348 6.94,3.73 6.682,3.583 A 1.603,1.603 0 0 1 6.442,3.398 L 9.888,0.966 8.91,3.97 7.915,7.028 c 0,0.056 0,0.074 -0.055,0.074 z m 3.5,-0.073 A 1.106,1.106 0 0 1 11.121,6.899 C 10.937,6.77 10.881,6.715 10.881,6.679 l 0.038,-0.37 C 11.029,5.075 10.569,3.767 9.721,2.864 L 9.5,2.643 9.574,2.348 a 1.013,1.013 0 0 1 0.11,-0.276 5.104,5.104 0 0 1 1.695,4.975 z M 1.339,6.862 1.284,6.605 A 5.16,5.16 0 0 1 2.997,2.127 L 3.09,2.422 3.163,2.698 2.979,2.882 C 2.61,3.306 2.205,3.988 2.021,4.541 A 4.901,4.901 0 0 0 1.8,6.568 C 1.8,6.605 1.357,6.862 1.34,6.862 Z M 7.789,5.167 5.76,3.693 C 4.415,2.698 3.77,2.22 3.77,2.274 l 0.737,2.304 c 0,0.018 -0.368,0.294 -0.423,0.294 0,0 -1.29,-3.98 -1.272,-3.998 L 5.392,2.754 7.916,4.65 7.879,4.835 7.806,5.075 A 0.141,0.141 0 0 1 7.769,5.166 Z M 8.341,1.851 8.249,1.795 A 4.79,4.79 0 0 0 5.779,1.427 C 5.374,1.482 4.859,1.611 4.545,1.777 L 4.379,1.851 4.159,1.703 C 3.863,1.482 3.863,1.5 4.103,1.371 a 5.178,5.178 0 0 1 3.87,-0.276 c 0.405,0.147 0.92,0.369 0.866,0.424 L 8.581,1.685 Z"
     id="path9"
     inkscape:connector-curvature="0"
     style="fill:#e6e6e6" />
</svg>
